icons/svg/arrow-swap.svg

<svg width="24" height="24" viewBox="0 0 24 24" fill="none" xmlns="http://www.w3.org/2000/svg">
<path d="M9.6183 12.2489L5.80396 16.0633C5.51107 16.3561 5.36462 16.74 5.36462 17.1239M9.6183 21.9989L5.80396 18.1846C5.51107 17.8917 5.36462 17.5078 5.36462 17.1239M18.7589 17.1239L5.7433 17.1239H5.36462" stroke="currentColor" stroke-width="1.5" stroke-linecap="round" stroke-linejoin="round"/>
<path d="M5.24109 7.37392L18.2567 7.37392H18.6354M14.3817 2.49892L18.1961 6.31326C18.4889 6.60615 18.6354 6.99003 18.6354 7.37392M14.3817 12.2489L18.1961 8.43458C18.4889 8.14168 18.6354 7.7578 18.6354 7.37392" stroke="currentColor" stroke-width="1.5" stroke-linecap="round" stroke-linejoin="round"/>
</svg>

<svg xmlns="http://www.w3.org/2000/svg" width="24" height="24" fill="none" viewBox="0 0 24 24"><path stroke="currentColor" stroke-linecap="round" stroke-linejoin="round" stroke-width="1.5" d="m9.618 12.249-3.814 3.814c-.293.293-.44.677-.44 1.06M9.619 22l-3.814-3.814a1.5 1.5 0 0 1-.44-1.061m13.395 0H5.365m-.124-9.751h13.394m-4.253-4.875 3.814 3.814c.293.293.44.677.44 1.06m-4.254 4.876 3.814-3.814c.293-.293.44-.677.44-1.061"/></svg>
